Simply-Red-Circles/scalable/apps/system-software-install.svg

<svg xmlns="http://www.w3.org/2000/svg" width="48" height="48" viewBox="0 0 12.7 12.7"><path fill="#a02c2c" d="M6.34.07a6.29 6.29 0 0 0-6.29 6.3 6.29 6.29 0 0 0 6.3 6.28 6.29 6.29 0 0 0 6.28-6.29A6.29 6.29 0 0 0 6.34.07zm-.01.94a5.4 5.4 0 0 1 5.4 5.4 5.4 5.4 0 0 1-5.4 5.41 5.4 5.4 0 0 1-5.41-5.4A5.4 5.4 0 0 1 6.32 1zm-2.1.73a.21.21 0 0 0-.16.08L2.46 3.86a.2.2 0 0 0-.05.13V9.7c0 .12.1.21.21.21h7.43c.12 0 .21-.1.21-.21V3.99a.2.2 0 0 0-.04-.13l-1.6-2.04a.21.21 0 0 0-.17-.08H4.23zm.1.42h1.8V3.8h-3.1l1.3-1.65zm2.22 0h1.8l1.3 1.65h-3.1V2.16zM2.84 4.23h7V9.5h-7V4.23zm2.4.5v1.9h-.87l1.98 2.4 1.98-2.4h-.86v-1.9H5.23z"/></svg>

<?xml version="1.0" encoding="UTF-8" standalone="no"?>
<svg
   xmlns:dc="http://purl.org/dc/elements/1.1/"
   xmlns:cc="http://creativecommons.org/ns#"
   xmlns:rdf="http://www.w3.org/1999/02/22-rdf-syntax-ns#"
   xmlns:svg="http://www.w3.org/2000/svg"
   xmlns="http://www.w3.org/2000/svg"
   xmlns:sodipodi="http://sodipodi.sourceforge.net/DTD/sodipodi-0.dtd"
   xmlns:inkscape="http://www.inkscape.org/namespaces/inkscape"
   width="48"
   height="48"
   viewBox="0 0 12.7 12.7"
   version="1.1"
   id="svg4"
   sodipodi:docname="system-software-install.svg"
   inkscape:version="0.92.4 (5da689c313, 2019-01-14)">
  <metadata
     id="metadata10">
    <rdf:RDF>
      <cc:Work
         rdf:about="">
        <dc:format>image/svg+xml</dc:format>
        <dc:type
           rdf:resource="http://purl.org/dc/dcmitype/StillImage" />
        <dc:title></dc:title>
      </cc:Work>
    </rdf:RDF>
  </metadata>
  <defs
     id="defs8" />
  <sodipodi:namedview
     pagecolor="#ffffff"
     bordercolor="#666666"
     borderopacity="1"
     objecttolerance="10"
     gridtolerance="10"
     guidetolerance="10"
     inkscape:pageopacity="0"
     inkscape:pageshadow="2"
     inkscape:window-width="1087"
     inkscape:window-height="480"
     id="namedview6"
     showgrid="false"
     inkscape:zoom="4.9166667"
     inkscape:cx="2.1355932"
     inkscape:cy="24"
     inkscape:window-x="0"
     inkscape:window-y="25"
     inkscape:window-maximized="0"
     inkscape:current-layer="svg4" />
  <path
     d="M 6.34,0.07 A 6.29,6.29 0 0 0 0.05,6.37 6.29,6.29 0 0 0 6.35,12.65 6.29,6.29 0 0 0 12.63,6.36 6.29,6.29 0 0 0 6.34,0.07 Z M 6.33,1.01 a 5.4,5.4 0 0 1 5.4,5.4 5.4,5.4 0 0 1 -5.4,5.41 A 5.4,5.4 0 0 1 0.92,6.42 5.4,5.4 0 0 1 6.32,1 Z M 4.23,1.74 A 0.21,0.21 0 0 0 4.07,1.82 L 2.46,3.86 A 0.2,0.2 0 0 0 2.41,3.99 V 9.7 c 0,0.12 0.1,0.21 0.21,0.21 h 7.43 c 0.12,0 0.21,-0.1 0.21,-0.21 V 3.99 A 0.2,0.2 0 0 0 10.22,3.86 L 8.62,1.82 A 0.21,0.21 0 0 0 8.45,1.74 Z m 0.1,0.42 h 1.8 V 3.8 h -3.1 l 1.3,-1.65 z m 2.22,0 h 1.8 l 1.3,1.65 H 6.55 Z M 2.84,4.23 h 7 V 9.5 h -7 z m 2.4,0.5 v 1.9 H 4.37 l 1.98,2.4 1.98,-2.4 H 7.47 V 4.73 H 5.23 Z"
     id="path2"
     inkscape:connector-curvature="0"
     style="fill:#a02c2c" />
</svg>
